files/2024-05-12/svg/work/ram_health.svg

<?xml version="1.0" encoding="UTF-8" standalone="no"?>
<!-- Created with Inkscape (http://www.inkscape.org/) -->

<svg
   width="48"
   height="48"
   viewBox="0 0 48 48"
   version="1.1"
   id="svg1"
   xml:space="preserve"
   inkscape:version="1.3.2 (091e20e, 2023-11-25, custom)"
   sodipodi:docname="ram_health.svg"
   xmlns:inkscape="http://www.inkscape.org/namespaces/inkscape"
   xmlns:sodipodi="http://sodipodi.sourceforge.net/DTD/sodipodi-0.dtd"
   xmlns="http://www.w3.org/2000/svg"
   xmlns:svg="http://www.w3.org/2000/svg"><sodipodi:namedview
     id="namedview1"
     pagecolor="#505050"
     bordercolor="#eeeeee"
     borderopacity="1"
     inkscape:showpageshadow="0"
     inkscape:pageopacity="0"
     inkscape:pagecheckerboard="0"
     inkscape:deskcolor="#505050"
     inkscape:document-units="px"
     inkscape:zoom="17.9375"
     inkscape:cx="24"
     inkscape:cy="23.33101"
     inkscape:window-width="1920"
     inkscape:window-height="1057"
     inkscape:window-x="-8"
     inkscape:window-y="-8"
     inkscape:window-maximized="1"
     inkscape:current-layer="svg1" /><defs
     id="defs1" /><path
     id="path3-0"
     style="fill:none;stroke:#ffffff;stroke-linecap:round;stroke-linejoin:round;stroke-opacity:1"
     d="M 24,21.351917 V 32.501743 M 18.425087,26.92683 H 29.574913 M 28.1,34.843206 h 6.635 c 4.616947,0 2.579778,-3.554286 1.71409,-5.091418 L 23.992011,7.6469419 11.534933,29.751788 c -0.865688,1.537132 -2.9028564,5.091418 1.71409,5.091418 h 6.635 M 45.5,24 A 21.5,21.5 0 0 1 24,45.5 21.5,21.5 0 0 1 2.5,24 21.5,21.5 0 0 1 24,2.5 21.5,21.5 0 0 1 45.5,24 Z" /></svg>

<?xml version="1.0" encoding="UTF-8"?>
<!-- Created with Inkscape (http://www.inkscape.org/) -->
<svg width="48" height="48" version="1.1" viewBox="0 0 48 48" xml:space="preserve" xmlns="http://www.w3.org/2000/svg"><path d="m24 21.352v11.15m-5.5749-5.5749h11.15m-1.4749 7.9164h6.635c4.6169 0 2.5798-3.5543 1.7141-5.0914l-12.457-22.105-12.457 22.105c-0.86569 1.5371-2.9029 5.0914 1.7141 5.0914h6.635m25.616-10.843a21.5 21.5 0 0 1-21.5 21.5 21.5 21.5 0 0 1-21.5-21.5 21.5 21.5 0 0 1 21.5-21.5 21.5 21.5 0 0 1 21.5 21.5z" fill="none" stroke="#fff" stroke-linecap="round" stroke-linejoin="round"/></svg>
